!!!OTL: Die verkaufte Muellerin
!!!OTL-incipit: Es wollt ein Mueller frueh aufstehn,
!!!ARE: Europa, Mitteleuropa, Deutschland / France, Lothringen
!!!YOR: 4, S. 342
!!    1908 gedruckt in Metz
!!!SCT: Q0086O
!!!TXL: @@DE
!!!YEM: Copyright 1995, estate of Helmut Schaffrath.
**kern	**text
*ICvox	*
*M2/2	*
*met(c|)	*
*k[f#]	*
*G:	*
!LO:TX:a:t=132 Lothringen	!
{4d	Es
=1	=1
4g	wollt
4d	ein
4g	Müller
4a	.
=2	=2
4b	früh
8bL	auf-
8aJ	.
4g}	-ſtehn,
{4a	wollt
=3	=3
4b	in
4a	den
4b	Wald
4cc	ſpa-
=4	=4
4dd	-ʒie-
8ddL	-ren
8ccJ	.
4b}	gehn,
{4dd	wollt
=5	=5
4ee	wei-
4dd	-len
4cc	in
4b	dem
=6	=6
(2b	Wal-
2dd)	.
=7	=7
2a	-de.
4r}	.
==	==
!!!AGN: Ballade, Menschenhandel, Rettung, Hinrichtung
!!!ONB: ESAC (Essen Associative Code) Database: BALLADE
!!!AMT: simple duple
!!!AIN: vox
!!!EED: Helmut Schaffrath
!!!EEV: 1.0
!!!source: Deutsche Volkslieder mit ihren Melodien. Herausgegeben vom Deutschen Volksliedarchiv. Vierter Band. Berlin 1959.
!!!page: 342
!!!ENC: Anna Maria Matuszewska
!!!EEV: 2025/02/27
*-	*-
